src/packages/tokens/img/matic.svg

<svg width="24" height="24" viewBox="0 0 24 24" fill="none" xmlns="http://www.w3.org/2000/svg">
<g clip-path="url(#clip0_8_2940)">
<circle cx="12" cy="12" r="12" fill="#EDEFF0"/>
<path d="M10.1738 11.2722L12 15.2542L14.7125 13.7124H14.7177V10.6271L10.1738 11.2722Z" fill="#2BBDF7"/>
<path d="M18.2208 8.31351L16.5281 7.68743L14.7175 7.54175V10.627V17.1549L17.4334 18.6984L19.5995 14.3523L18.226 10.1709L18.2208 8.31351Z" fill="#2891F9"/>
<path d="M18.0629 7.54175L17.4333 9.08526V18.6741L20.1492 17.1306V7.54175H18.0629Z" fill="#2BBDF7"/>
<path d="M17.4334 6L14.7175 7.54178L17.4334 9.0853L20.1493 7.54178L17.4334 6Z" fill="#2B6DEF"/>
<path d="M12 12.1688L9.28411 9.17198L3.85059 7.54175V17.1306L6.56648 18.6741L7.34517 13.3672L9.28411 13.7123L12 15.2541V12.1688Z" fill="#2891F9"/>
<path d="M6.56648 6L3.85059 7.54178L12 12.1689L13.2313 11.4717L14.7176 10.6271L6.56648 6Z" fill="#2B6DEF"/>
<path d="M6.56665 12.1688V18.6741L9.28428 17.1306V13.7123L6.56665 12.1688Z" fill="#2BBDF7"/>
</g>
<defs>
<clipPath id="clip0_8_2940">
<rect width="24" height="24" fill="white"/>
</clipPath>
</defs>
</svg>

<svg xmlns="http://www.w3.org/2000/svg" width="24" height="24" fill="none" xmlns:v="https://vecta.io/nano"><g clip-path="url(#A)"><circle cx="12" cy="12" r="12" fill="#edeff0"/><path d="M10.174 11.272L12 15.254l2.713-1.542h.005v-3.085l-4.544.645z" fill="#2bbdf7"/><path d="M18.221 8.314l-1.693-.626-1.811-.146v3.085 6.528l2.716 1.543 2.166-4.346-1.373-4.181-.005-1.857z" fill="#2891f9"/><path d="M18.063 7.542l-.63 1.544v9.589l2.716-1.543V7.542h-2.086z" fill="#2bbdf7"/><path d="M17.433 6l-2.716 1.542 2.716 1.544 2.716-1.544L17.433 6z" fill="#2b6def"/><path d="M12 12.169L9.284 9.172l-5.434-1.63v9.589l2.716 1.543.779-5.307 1.939.345L12 15.254v-3.085z" fill="#2891f9"/><path d="M6.566 6L3.851 7.542 12 12.169l1.231-.697 1.486-.845L6.566 6z" fill="#2b6def"/><path d="M6.567 12.169v6.505l2.718-1.543v-3.418l-2.718-1.544z" fill="#2bbdf7"/></g><defs><clipPath id="A"><path fill="#fff" d="M0 0h24v24H0z"/></clipPath></defs></svg>
